X:518
T:John Brown's Body
T:Battle Hymn of the Republic
C:Traditional American
R:Reel
S:Colin Hume's website,  colinhume.com  - chords can also be printed below the stave.
Q:3/8=120
M:6/8
K:D
"D"A3 A3 | F2A d2e | "D"f2f f2e | "D7"d3- d3 | "G"B3 B3 | d2c d2B | "D"A2B A2G | F3- F3 |
"D"A3 A3 | F2A d2e | "F#7"f2f f2e | "Bm"d3 d2d | "E7"e3 e3 | "A7"d3 c3 | "D"d3- d3- | d3- d3 |]

